boxicons/svg/regular/bx-align-middle.svg

<svg xmlns="http://www.w3.org/2000/svg" width="24" height="24" viewBox="0 0 24 24"><path d="M4 19h16v2H4zm3-4h10v2H7zm-3-4h16v2H4zm0-8h16v2H4zm3 4h10v2H7z"/></svg>

<svg xmlns="http://www.w3.org/2000/svg" width="24" height="24" viewBox="0 0 24 24"><path d="M4 19H20V21H4zM7 15H17V17H7zM4 11H20V13H4zM4 3H20V5H4zM7 7H17V9H7z"/></svg>
